X:3
B:Jardins d'amour
O:Wallonie
M:2/4
L:1/8
Q:C4=40
K:C
|: cG ed/c/ | dg/f/ ed | cd/e/ fe | dg G2 |
cG ed/c/ | dg/f/ ed | cd/e/ fe | dB c2 :|
Q:C4=60
|: GA/B/ cB/c/ | dc/d/ e2 | cd/e/ ff/e/ | dd/c/ (3BAG |
GA/B/ cB/c/ | dc/d/ e2 | cd/e/ fe/d/ | cB c2 :|
